X: 21923
T: IRISH GIRL -- Jig
R: jig
B: K\"ohler's Violin Repository, v.2, 1885 p.192 #3
F: http://www.archive.org/details/klersviolinrepos02rugg
Z: 2012 John Chambers <jc:trillian.mit.edu>
M: 6/8
L: 1/8
K: A
uF |\
(E2F) (A2B) | c2c- c>BA | c2c- cBA | BAB cAF |\
EFG ABc | (.d2.d) def | ecA (B2A) | F3 A2 :: d |
(c/d/)ee ecA | (d/e/)ff fga | (c/d/)ee ecA | BGE (.E2.d) |\
(c/d/)ee ecA | (d/e/)ff fga | ecA (B2A) | F3 A2 :|

%%sep 2 1 500

